X:98
T:untitled. JBs.098
S:Jas.Blackshaw MS, 1837, N.Shropshire
A:North Shropshire
Z:T. Weatherall 2006
M:6/8
L:1/8
Q:3/8=110
R:Quadrille
K:F
A/G/|FAf fef|agf fef|gec bgf|eg/f/e/d/c2B|!
Acf fef|agf fef|g2câ€™câ€™2b|câ€™3z2:|!
|:a|bge agf|eg/f/e/d/ cfa|câ€™ba dâ€™bg|fed cdB|!
Acf fef|aga fef|câ€™gcâ€™ cde|f3f2:|

